src/assets/filled/Login.svg

<svg width="24" height="24" viewBox="0 0 24 24"  xmlns="http://www.w3.org/2000/svg">
<path d="M10.7599 2C10.2799 2 9.8999 2.38 9.8999 2.86V11.32H13.5699L11.9999 9.75C11.7099 9.46 11.7099 8.98 11.9999 8.69C12.2899 8.4 12.7699 8.4 13.0599 8.69L15.8999 11.54C16.1899 11.83 16.1899 12.31 15.8999 12.6L13.0599 15.45C12.9099 15.6 12.7199 15.67 12.5299 15.67C12.3399 15.67 12.1499 15.6 11.9999 15.45C11.7099 15.16 11.7099 14.68 11.9999 14.39L13.5599 12.83H9.8999V21.16C9.8999 21.63 10.2799 22.02 10.7599 22.02C16.6499 22.02 20.7599 17.91 20.7599 12.02C20.7599 6.13 16.6399 2 10.7599 2Z" />
<path d="M3.98999 11.3201C3.57999 11.3201 3.23999 11.6601 3.23999 12.0701C3.23999 12.4801 3.57999 12.8201 3.98999 12.8201H9.88999V11.3201H3.98999Z" />
</svg>

<?xml version="1.0" encoding="UTF-8"?>
<svg width="24" height="24" viewBox="0 0 24 24" xmlns="http://www.w3.org/2000/svg">
 <path d="m10.76 2c-0.48 0-0.86 0.38-0.86 0.86v8.46h3.67l-1.57-1.57c-0.29-0.29-0.29-0.77 0-1.06s0.77-0.29 1.06 0l2.84 2.85c0.29 0.29 0.29 0.77 0 1.06l-2.84 2.85c-0.15 0.15-0.34 0.22-0.53 0.22s-0.38-0.07-0.53-0.22c-0.29-0.29-0.29-0.77 0-1.06l1.56-1.56h-3.66v8.33c0 0.47 0.38 0.86 0.86 0.86 5.89 0 10-4.11 10-10s-4.12-10.02-10-10.02z"/>
 <path d="m3.99 11.32c-0.41 0-0.75 0.34-0.75 0.75s0.34 0.75 0.75 0.75h5.9v-1.5h-5.9z"/>
</svg>
